svgs/nature/u1F431.layer3.svg

<svg xmlns="http://www.w3.org/2000/svg" viewBox="0 0 512 512" enable-background="new 0 0 512 512"><path fill="#DDC89B" d="M351.17 327.418c-3.063 0-6.01-1.695-7.463-4.624-2.045-4.117-.365-9.113 3.753-11.157 17.63-8.755 37.77-9.015 55.25-.712 4.152 1.973 5.92 6.938 3.947 11.09-1.973 4.154-6.938 5.917-11.09 3.95-12.84-6.1-27.675-5.886-40.703.582-1.19.59-2.452.87-3.695.87zm-235.43-.87c13.026-6.47 27.862-6.684 40.702-.584 4.152 1.973 9.118.205 11.09-3.948 1.973-4.152.205-9.118-3.948-11.09-17.48-8.305-37.62-8.045-55.25.71-4.117 2.045-5.798 7.04-3.753 11.158 1.456 2.93 4.4 4.624 7.464 4.624 1.243 0 2.506-.28 3.696-.87zM10.155 409.034c.424-.222 44.054-22.233 184.573-25.062 1.38-.027 2.476-1.17 2.448-2.55-.027-1.38-1.156-2.512-2.55-2.448-142.103 2.86-185.042 24.71-186.8 25.636-1.22.646-1.685 2.153-1.043 3.374.447.85 1.316 1.336 2.216 1.336.39 0 .785-.09 1.155-.285zm15.13 34.88c.678-.21 68.626-21.356 151.373-40.456 1.344-.312 2.183-1.653 1.873-3-.31-1.345-1.656-2.187-3-1.872C92.607 417.73 24.477 438.93 23.8 439.143c-1.318.412-2.053 1.814-1.64 3.132.333 1.07 1.32 1.756 2.384 1.756.248 0 .5-.036.747-.113zm30.736 46.294c.58-.562 59.146-56.303 157.144-78.924 1.345-.31 2.184-1.652 1.874-2.998-.312-1.346-1.657-2.187-3-1.873-99.333 22.93-158.9 79.628-159.49 80.198-.994.96-1.022 2.543-.062 3.536.49.508 1.144.763 1.798.763.625 0 1.252-.233 1.736-.7zm452.88-82.22c.646-1.222.18-2.733-1.042-3.38-1.76-.928-44.7-22.775-186.804-25.636h-.052c-1.357 0-2.47 1.086-2.498 2.448-.028 1.38 1.068 2.522 2.448 2.55 140.52 2.83 184.148 24.84 184.568 25.06.373.197.772.29 1.166.29.9 0 1.766-.484 2.214-1.332zm-15.372 34.284c.41-1.317-.324-2.72-1.643-3.132-.68-.212-68.81-21.413-151.737-40.555-1.352-.314-2.688.528-2.998 1.873-.31 1.346.528 2.688 1.873 2.998 82.735 19.098 150.695 40.245 151.372 40.457.248.077.5.114.746.114 1.066 0 2.05-.685 2.387-1.756zm-30.334 47.873c.96-.993.932-2.575-.06-3.534-.592-.57-60.16-57.27-159.492-80.197-1.353-.315-2.688.528-2.998 1.873-.31 1.346.528 2.688 1.873 2.998 97.915 22.602 156.56 78.363 157.142 78.924.484.468 1.11.7 1.735.7.655 0 1.308-.255 1.798-.763z"/></svg>

<?xml version="1.0" encoding="iso-8859-1"?>
<!-- Generator: Adobe Illustrator 18.1.0, SVG Export Plug-In . SVG Version: 6.00 Build 0)  -->
<!DOCTYPE svg PUBLIC "-//W3C//DTD SVG 1.1//EN" "http://www.w3.org/Graphics/SVG/1.1/DTD/svg11.dtd">
<svg version="1.1" xmlns="http://www.w3.org/2000/svg" xmlns:xlink="http://www.w3.org/1999/xlink" x="0px" y="0px"
	 viewBox="0 0 512 512" enable-background="new 0 0 512 512" xml:space="preserve">
<g id="Layer_4">
	<path fill="#DDC89B" d="M351.169,327.418c-3.062,0-6.008-1.695-7.462-4.624c-2.045-4.117-0.365-9.113,3.753-11.157
		c17.63-8.755,37.769-9.015,55.249-0.712c4.153,1.973,5.92,6.938,3.948,11.091c-1.973,4.153-6.938,5.916-11.091,3.948
		c-12.838-6.1-27.674-5.885-40.702,0.583C353.675,327.138,352.412,327.418,351.169,327.418z M115.739,326.547
		c13.027-6.468,27.863-6.683,40.703-0.583c4.152,1.973,9.118,0.205,11.09-3.948c1.973-4.152,0.205-9.118-3.948-11.091
		c-17.481-8.304-37.621-8.044-55.25,0.712c-4.117,2.044-5.798,7.04-3.753,11.157c1.454,2.929,4.4,4.624,7.462,4.624
		C113.286,327.418,114.549,327.138,115.739,326.547z M10.156,409.035c0.424-0.222,44.054-22.233,184.573-25.062
		c1.38-0.027,2.477-1.169,2.449-2.55c-0.027-1.38-1.156-2.512-2.55-2.448C52.523,381.835,9.584,403.683,7.826,404.611
		c-1.219,0.645-1.685,2.152-1.043,3.373c0.447,0.851,1.316,1.336,2.216,1.336C9.389,409.32,9.786,409.229,10.156,409.035z
		 M25.287,443.916c0.677-0.212,68.625-21.357,151.372-40.457c1.345-0.311,2.184-1.652,1.874-2.998
		c-0.311-1.346-1.657-2.188-2.999-1.873c-82.929,19.142-151.059,40.343-151.737,40.555c-1.318,0.412-2.053,1.814-1.641,3.132
		c0.334,1.07,1.321,1.756,2.385,1.756C24.788,444.03,25.039,443.993,25.287,443.916z M56.022,490.209
		c0.58-0.561,59.145-56.302,157.143-78.923c1.345-0.311,2.184-1.652,1.874-2.998c-0.311-1.346-1.656-2.187-2.999-1.873
		c-99.333,22.929-158.901,79.628-159.491,80.198c-0.993,0.959-1.021,2.542-0.061,3.535c0.49,0.508,1.144,0.763,1.798,0.763
		C54.911,490.911,55.538,490.678,56.022,490.209z M508.902,407.99c0.645-1.222,0.178-2.733-1.043-3.379
		c-1.759-0.929-44.698-22.776-186.803-25.637c-0.018-0.001-0.034-0.001-0.052-0.001c-1.357,0-2.471,1.087-2.498,2.449
		c-0.028,1.381,1.068,2.522,2.448,2.55c140.519,2.829,184.148,24.841,184.568,25.061c0.373,0.196,0.772,0.29,1.166,0.29
		C507.587,409.323,508.454,408.838,508.902,407.99z M493.529,442.274c0.411-1.317-0.323-2.72-1.642-3.132
		c-0.679-0.212-68.809-21.413-151.737-40.555c-1.352-0.314-2.688,0.528-2.998,1.873c-0.311,1.346,0.528,2.688,1.873,2.998
		c82.735,19.098,150.695,40.245,151.372,40.457c0.248,0.077,0.499,0.114,0.746,0.114
		C492.208,444.03,493.194,443.345,493.529,442.274z M463.196,490.147c0.959-0.993,0.932-2.575-0.061-3.534
		c-0.591-0.57-60.158-57.27-159.491-80.198c-1.353-0.315-2.688,0.528-2.998,1.873c-0.311,1.346,0.528,2.688,1.873,2.998
		c97.916,22.602,156.562,78.363,157.143,78.924c0.485,0.468,1.11,0.701,1.736,0.701
		C462.053,490.911,462.706,490.655,463.196,490.147z"/>
</g>
<g id="Layer_1">
</g>
</svg>
